X: 3
T: Crested Hens
R: waltz
M: 3/4
L: 1/8
K: Dmaj
| E3G FE | B4 Bc | dc Be dc | dc BA GF |
| E3G FE | B4 Bc | dc BA GA | [1 B3G FD :| [2 B4 ef ||
|| gB Bg gB | =c4ef | gf ag fe | ^d2e2 f2 |
| gB Bg gB | =c4ef | gf ag fd | [1 e3e ef :| [2 e3G FA |]


Tune 562	Setting 25780

